X:151
T:Steve & Karens Wedding 
R:double jig
C:2011 LE McCullough 
M:6/8
L:1/8
K:G
|: ~G3 BAG | ADD FGA | ~G3 gfd | ege edB |
~G3 BAG | ADD FGA |1 GBB FAA | AGF G2D :|2 GBB FAf | gdB G2d ||:
~e3 gfe | dGg dBG | ~c3 edc | Bcd BAG |
~e3 gfe | dGg dBG | A^ce age | fd^c d2d |
~e3 gfe | dGg dBG | ~c3 edc | Bcd gfd |
~e3 gfe | dGg dBG | cde gdB | AGF G2D ||
<end>
<start>
